!!!OTL: Die Schlangenkoechin Ach, cerenko moja,
!!!ARE: Europa, Osteuropa, Tschechoslowakei, Slowakei
!!!ARD: Europa%Osteuropa%Tschechoslowakei@Slowakei#
!!!ARL: ? / ?
!!!YOR: 4, S. 206
!!    1914 in Praha
!!!SCT: Q2079H
!!!YEM: Copyright 1995, estate of Helmut Schaffrath.
**kern
*ICvox
*Ivox
*M2/4
*k[b-]
*d:
=1
{8a
8a
8a
8a
=2
4a
4fn}
=3
{8ccn
8ccn
8b-
8g
=4
4a
4r}
=5
{8fn
8e
4d
=6
8g
4g
8a
=7
8b-
8a
4g
=8
8fn
4a
8a}
=9
{8d
8e
8fn
8e
=10
4d
4r}
=11
{8fn
8e
4d
=12
8g
4g
8a
=13
8b-
8a
4g
=14
8fn
4a
8a}
=15
{8d
8e
8fn
8e
=16
4d
4r}
==
!!!AGN: Ballade, Mord; Reigen - Tanz, antiphonal
!! Slowakische Fassung der Ballade. Verzierung (Nachschlag) in der
!!    zweiten Zeile. Zweite, vierte und sechste Zeile = Refrain.
!!!ONB: ESAC (Essen Associative Code) Database: BALLADE
!!!AMT: simple duple
!!!AIN: vox
!!!EED: Helmut Schaffrath
!!!EEV: 1.0
*-
!!!title: @{OTL} [@{SCT}]
